My-Portfolio/assert/fonts/svgs/solid/smoking.svg

<svg xmlns="http://www.w3.org/2000/svg" viewBox="0 0 640 512"><!--! Font Awesome Free 6.1.2 by @fontawesome - https://fontawesome.com License - https://fontawesome.com/license/free (Icons: CC BY 4.0, Fonts: SIL OFL 1.1, Code: MIT License) Copyright 2022 Fonticons, Inc. --><path d="M432 352h-384C21.5 352 0 373.5 0 400v64C0 490.5 21.5 512 48 512h384c8.75 0 16-7.25 16-16v-128C448 359.3 440.8 352 432 352zM400 464H224v-64h176V464zM536 352h-48C483.6 352 480 355.6 480 360v144c0 4.375 3.625 8 8 8h48c4.375 0 8-3.625 8-8v-144C544 355.6 540.4 352 536 352zM632 352h-48C579.6 352 576 355.6 576 360v144c0 4.375 3.625 8 8 8h48c4.375 0 8-3.625 8-8v-144C640 355.6 636.4 352 632 352zM553.3 87.13C547.6 83.25 544 77.12 544 70.25V8C544 3.625 540.4 0 536 0h-48C483.6 0 480 3.625 480 8v62.25c0 22 10.25 43.5 28.62 55.5C550.8 153 576 199.5 576 249.8V280C576 284.4 579.6 288 584 288h48C636.4 288 640 284.4 640 280V249.8C640 184.3 607.6 123.5 553.3 87.13zM487.8 141.6C463.8 125 448 99.25 448 70.25V8C448 3.625 444.4 0 440 0h-48C387.6 0 384 3.625 384 8v66.38C384 118.1 408.6 156 444.3 181.1C466.8 196.8 480 222.3 480 249.8V280C480 284.4 483.6 288 488 288h48C540.4 288 544 284.4 544 280V249.8C544 206.4 523 166.3 487.8 141.6z"/></svg>

<svg xmlns="http://www.w3.org/2000/svg" viewBox="0 0 640 512"><!-- Font Awesome Free 5.15.4 by @fontawesome - https://fontawesome.com License - https://fontawesome.com/license/free (Icons: CC BY 4.0, Fonts: SIL OFL 1.1, Code: MIT License) --><path d="M632 352h-48c-4.4 0-8 3.6-8 8v144c0 4.4 3.6 8 8 8h48c4.4 0 8-3.6 8-8V360c0-4.4-3.6-8-8-8zM553.3 87.1c-5.7-3.8-9.3-10-9.3-16.8V8c0-4.4-3.6-8-8-8h-48c-4.4 0-8 3.6-8 8v62.3c0 22 10.2 43.4 28.6 55.4 42.2 27.3 67.4 73.8 67.4 124V280c0 4.4 3.6 8 8 8h48c4.4 0 8-3.6 8-8v-30.3c0-65.5-32.4-126.2-86.7-162.6zM432 352H48c-26.5 0-48 21.5-48 48v64c0 26.5 21.5 48 48 48h384c8.8 0 16-7.2 16-16V368c0-8.8-7.2-16-16-16zm-32 112H224v-64h176v64zm87.7-322.4C463.8 125 448 99.3 448 70.3V8c0-4.4-3.6-8-8-8h-48c-4.4 0-8 3.6-8 8v66.4c0 43.7 24.6 81.6 60.3 106.7 22.4 15.7 35.7 41.2 35.7 68.6V280c0 4.4 3.6 8 8 8h48c4.4 0 8-3.6 8-8v-30.3c0-43.3-21-83.4-56.3-108.1zM536 352h-48c-4.4 0-8 3.6-8 8v144c0 4.4 3.6 8 8 8h48c4.4 0 8-3.6 8-8V360c0-4.4-3.6-8-8-8z"/></svg>
